icons/src/svgs/cog.svg

<?xml version="1.0" encoding="UTF-8" standalone="no"?>
<svg
   xmlns:dc="http://purl.org/dc/elements/1.1/"
   xmlns:cc="http://creativecommons.org/ns#"
   xmlns:rdf="http://www.w3.org/1999/02/22-rdf-syntax-ns#"
   xmlns:svg="http://www.w3.org/2000/svg"
   xmlns="http://www.w3.org/2000/svg"
   xmlns:sodipodi="http://sodipodi.sourceforge.net/DTD/sodipodi-0.dtd"
   xmlns:inkscape="http://www.inkscape.org/namespaces/inkscape"
   height="18"
   viewBox="0 0 18 18"
   width="18"
   version="1.1"
   id="svg60"
   sodipodi:docname="cog.svg"
   inkscape:version="0.92.3 (2405546, 2018-03-11)">
  <metadata
     id="metadata66">
    <rdf:RDF>
      <cc:Work
         rdf:about="">
        <dc:format>image/svg+xml</dc:format>
        <dc:type
           rdf:resource="http://purl.org/dc/dcmitype/StillImage" />
      </cc:Work>
    </rdf:RDF>
  </metadata>
  <defs
     id="defs64" />
  <sodipodi:namedview
     pagecolor="#ffffff"
     bordercolor="#666666"
     borderopacity="1"
     objecttolerance="10"
     gridtolerance="10"
     guidetolerance="10"
     inkscape:pageopacity="0"
     inkscape:pageshadow="2"
     inkscape:window-width="3200"
     inkscape:window-height="1671"
     id="namedview62"
     showgrid="false"
     inkscape:zoom="77.833333"
     inkscape:cx="9"
     inkscape:cy="9"
     inkscape:window-x="0"
     inkscape:window-y="55"
     inkscape:window-maximized="1"
     inkscape:current-layer="svg60" />
  <path
     d="m9.61721778 0c.50432332 0 .92972432.37553644.99227792.87596527l.1694758 1.35208864c.621936.16293526 1.2101118.40927913 1.7518537.72635791l1.0756496-.83705717c.3980886-.30962453.9644369-.27436496 1.3210474.08224544l.8728777.87287776c.3566104.3566104.39187.9229587.0822454 1.32104739l-.8365129 1.0765795c.316969.54174575.5632087 1.1299098.7260489 1.7518219l1.3518534.1685777c.5004289.0625536.8759653.48795461.8759653.99227788v1.23443556c0 .50432332-.3755364.92972432-.8759653.99227792l-1.3518534.1685777c-.1628402.6219121-.4090799 1.2100761-.7260489 1.7518219l.8365129 1.0765795c.3096246.3980886.274365.9644369-.0822454 1.3210474l-.8728777.8728777c-.3566105.3566104-.9229588.39187-1.3210474.0822454l-1.0756496-.8370571c-.5417419.3170788-1.1299177.5634226-1.7518537.7263579l-.1694758 1.3520886c-.0625536.5004289-.4879546.8759653-.99227792.8759653h-1.23443556c-.50432327 0-.92972428-.3755364-.99227788-.8759653l-.1694758-1.3520886c-.62193608-.1629353-1.21011188-.4092791-1.7518537-.7263579l-1.0756496.8370571c-.39808869.3096246-.96443699.274365-1.32104739-.0822454l-.87287776-.8728777c-.3566104-.3566105-.39186997-.9229588-.08224544-1.3210474l.836513-1.0765795c-.31696905-.5417458-.56320879-1.1299098-.72604896-1.7518219l-1.35185342-.1685777c-.50042883-.0625536-.87596527-.4879546-.87596527-.99227792v-1.23443556c0-.50432327.37553644-.92972428.87596527-.99227788l1.35185342-.1685777c.16284017-.6219121.40907991-1.21007615.72604896-1.7518219l-.836513-1.0765795c-.30962453-.39808869-.27436496-.96443699.08224544-1.32104739l.87287776-.87287776c.3566104-.3566104.9229587-.39186997 1.32104739-.08224544l1.0756496.83705717c.54174182-.31707878 1.12991762-.56342265 1.7518537-.72635791l.1694758-1.35208864c.0625536-.50042883.48795461-.87596527.99227788-.87596527zm-.61721778 12c1.6568542 0 3-1.3431458 3-3 0-1.65685425-1.3431458-3-3-3-1.65685425 0-3 1.34314575-3 3 0 1.6568542 1.34314575 3 3 3z"
     fill="#aaa"
     fill-rule="evenodd"
     id="path58"
     style="fill:#000000" />
</svg>

<?xml version="1.0" encoding="UTF-8" standalone="no"?>
<svg
   xmlns:dc="http://purl.org/dc/elements/1.1/"
   xmlns:cc="http://creativecommons.org/ns#"
   xmlns:rdf="http://www.w3.org/1999/02/22-rdf-syntax-ns#"
   xmlns:svg="http://www.w3.org/2000/svg"
   xmlns="http://www.w3.org/2000/svg"
   xmlns:sodipodi="http://sodipodi.sourceforge.net/DTD/sodipodi-0.dtd"
   xmlns:inkscape="http://www.inkscape.org/namespaces/inkscape"
   width="18px"
   height="18px"
   viewBox="0 0 18 18"
   version="1.1"
   id="svg68"
   sodipodi:docname="Settings Icon.svg"
   inkscape:version="0.92.3 (2405546, 2018-03-11)">
  <metadata
     id="metadata74">
    <rdf:RDF>
      <cc:Work
         rdf:about="">
        <dc:format>image/svg+xml</dc:format>
        <dc:type
           rdf:resource="http://purl.org/dc/dcmitype/StillImage" />
      </cc:Work>
    </rdf:RDF>
  </metadata>
  <defs
     id="defs72" />
  <sodipodi:namedview
     pagecolor="#ffffff"
     bordercolor="#666666"
     borderopacity="1"
     objecttolerance="10"
     gridtolerance="10"
     guidetolerance="10"
     inkscape:pageopacity="0"
     inkscape:pageshadow="2"
     inkscape:window-width="3200"
     inkscape:window-height="1671"
     id="namedview70"
     showgrid="false"
     inkscape:zoom="77.833333"
     inkscape:cx="9"
     inkscape:cy="9"
     inkscape:window-x="0"
     inkscape:window-y="55"
     inkscape:window-maximized="1"
     inkscape:current-layer="svg68" />
  <!-- Generator: Sketch 58 (84663) - https://sketch.com -->
  <title
     id="title62">Settings Icon</title>
  <desc
     id="desc64">Created with Sketch.</desc>
  <g
     id="Settings-Icon"
     stroke="none"
     stroke-width="1"
     fill="none"
     fill-rule="evenodd"
     style="fill:#000000">
    <path
       d="M9.61721778,0 C10.1215411,3.51446528e-16 10.5469421,0.375536443 10.6094957,0.875965265 L10.7789715,2.22805391 C11.4009075,2.39098917 11.9890833,2.63733304 12.5308252,2.95441182 L13.6064748,2.11735465 C14.0045634,1.80773012 14.5709117,1.84298969 14.9275222,2.19960009 L15.8003999,3.07247785 C16.1570103,3.42908825 16.1922699,3.99543655 15.8826453,4.39352524 L15.0461324,5.47010474 C15.3631014,6.01185049 15.6093411,6.60001454 15.7721813,7.22192664 L17.1240347,7.39050434 C17.6244636,7.45305794 18,7.87845895 18,8.38278222 L18,9.61721778 C18,10.1215411 17.6244636,10.5469421 17.1240347,10.6094957 L15.7721813,10.7780734 C15.6093411,11.3999855 15.3631014,11.9881495 15.0461324,12.5298953 L15.8826453,13.6064748 C16.1922699,14.0045634 16.1570103,14.5709117 15.8003999,14.9275222 L14.9275222,15.8003999 C14.5709117,16.1570103 14.0045634,16.1922699 13.6064748,15.8826453 L12.5308252,15.0455882 C11.9890833,15.362667 11.4009075,15.6090108 10.7789715,15.7719461 L10.6094957,17.1240347 C10.5469421,17.6244636 10.1215411,18 9.61721778,18 L8.38278222,18 C7.87845895,18 7.45305794,17.6244636 7.39050434,17.1240347 L7.22102854,15.7719461 C6.59909246,15.6090108 6.01091666,15.362667 5.46917484,15.0455882 L4.39352524,15.8826453 C3.99543655,16.1922699 3.42908825,16.1570103 3.07247785,15.8003999 L2.19960009,14.9275222 C1.84298969,14.5709117 1.80773012,14.0045634 2.11735465,13.6064748 L2.95386765,12.5298953 C2.6368986,11.9881495 2.39065886,11.3999855 2.22781869,10.7780734 L0.875965265,10.6094957 C0.375536443,10.5469421 0,10.1215411 -8.8817842e-16,9.61721778 L0,8.38278222 C4.4408921e-16,7.87845895 0.375536443,7.45305794 0.875965265,7.39050434 L2.22781869,7.22192664 C2.39065886,6.60001454 2.6368986,6.01185049 2.95386765,5.47010474 L2.11735465,4.39352524 C1.80773012,3.99543655 1.84298969,3.42908825 2.19960009,3.07247785 L3.07247785,2.19960009 C3.42908825,1.84298969 3.99543655,1.80773012 4.39352524,2.11735465 L5.46917484,2.95441182 C6.01091666,2.63733304 6.59909246,2.39098917 7.22102854,2.22805391 L7.39050434,0.875965265 C7.45305794,0.375536443 7.87845895,3.14687287e-16 8.38278222,0 L9.61721778,0 Z M9,12 C10.6568542,12 12,10.6568542 12,9 C12,7.34314575 10.6568542,6 9,6 C7.34314575,6 6,7.34314575 6,9 C6,10.6568542 7.34314575,12 9,12 Z"
       id="settings"
       fill="#AAAAAA"
       style="fill:#000000" />
  </g>
</svg>
